tools/download-figma-icons/icons/solid/headset.svg

<svg width="24" height="24" viewBox="0 0 24 24" fill="none" xmlns="http://www.w3.org/2000/svg">
<path fill-rule="evenodd" clip-rule="evenodd" d="M23.9996 11.9998C23.9996 14.6998 21.9897 16.9422 19.388 17.3097V18.8247C19.388 20.8647 17.7222 22.5222 15.6823 22.5222H15.1873C14.8805 23.3846 14.0623 23.9996 13.1031 23.9996H10.8906C9.65985 23.9996 8.66312 23.0021 8.66312 21.7722C8.66312 20.5497 9.65985 19.5522 10.8906 19.5522H13.1031C14.0623 19.5522 14.8805 20.1672 15.1873 21.0222H15.6823C16.8972 21.0222 17.888 20.0397 17.888 18.8247V7.38739C17.888 4.13994 15.2473 1.49998 11.9998 1.49998C8.75237 1.49998 6.10566 4.13994 6.10566 7.38739V16.6122C6.10566 17.0247 5.77491 17.3622 5.35567 17.3622C2.39996 17.3622 0 14.9548 0 11.9998C0 9.28486 2.02497 7.04239 4.64243 6.6899C4.99492 2.94746 8.15988 0 11.9998 0C15.8398 0 18.9972 2.94746 19.3505 6.6899C21.9672 7.04239 23.9996 9.28486 23.9996 11.9998Z" fill="black"/>
</svg>

<svg width="24" height="24" viewBox="0 0 24 24" fill="none" xmlns="http://www.w3.org/2000/svg"><path fill-rule="evenodd" clip-rule="evenodd" d="M24 12c0 2.7-2.01 4.942-4.612 5.31v1.515a3.707 3.707 0 0 1-3.706 3.697h-.495A2.215 2.215 0 0 1 13.103 24h-2.212a2.227 2.227 0 0 1-2.228-2.228c0-1.222.997-2.22 2.228-2.22h2.212c.96 0 1.777.615 2.084 1.47h.495a2.203 2.203 0 0 0 2.206-2.197V7.387A5.893 5.893 0 0 0 12 1.5c-3.248 0-5.894 2.64-5.894 5.887v9.225c0 .413-.331.75-.75.75A5.365 5.365 0 0 1 0 12a5.364 5.364 0 0 1 4.642-5.31C4.995 2.947 8.16 0 12 0s6.997 2.947 7.35 6.69C21.968 7.042 24 9.285 24 12Z" fill="currentColor"/></svg>
